!!!!SEGMENT: Ver3015-I_vostri_acuti_dardi.krn
!!!id: Ver3015
!!!AGN: Madrigal
!!!SCT: Slim (1972)
!!!voices: 4
!!!COM: Philippe Verdelot
!!!OTL: I vostri acuti dardi
**kern	**kern	**kern	**kern
*part4	*part3	*part2	*part1
*staff4	*staff3	*staff2	*staff1
*I"Bassus	*I"Tenor	*I"Altus	*I"Superius
*I'B	*I'T	*I'A	*I'S
*clefF4	*clefGv2	*clefGv2	*clefG2
*k[b-]	*k[b-]	*k[b-]	*k[b-]
*F:	*F:	*F:	*F:
*M2/1	*M2/1	*M2/1	*M2/1
*met(C)	*met(C)	*met(C)	*met(C)
=1	=1	=1	=1
0F	0c	0A	0f
=2	=2	=2	=2
2B-y	2d	2B-y	2f
2A	2c	2F	2f
2G	2d	2B-y	2g
2G	2e	2B-y	2g
=3	=3	=3	=3
2F	2f	2c	2a
2F	2f	2c	2a
2r	2r	2r	2r
2F	2f	2c	2a
=4	=4	=4	=4
0E-X	0g	0e-X	0b-y
=5	=5	=5	=5
2r	2r	2r	2r
2F	2f	2c	2a
2r	2r	2r	2r
[2F	[2f	[2c	[2a
=6	=6	=6	=6
2F]	2f]	2c]	2a]
1C	1e	1c	1g
2C	2e	2c	2g
=7	=7	=7	=7
2C	2.e	2c	2.g
2C	.	2c	.
.	4d	.	4f
2C	2c	2G	2e
2C	2c	2G	2e
=8	=8	=8	=8
1BB-y	1d	1B-y	1f
1C	1c	1G	1e
=9	=9	=9	=9
2r	2r	2r	2r
2C	2e	2G	2cc
2F	2f	2A	2cc
2F	2f	2c	2a
=10	=10	=10	=10
2G	2e	2B-y	2b-y
2A	2e	2c	1a
1B-y	4d	1d	.
.	4c	.	.
.	4d	.	2g
.	4e	.	.
=11	=11	=11	=11
1A	2f	1c	1a
.	2e	.	.
2r	2r	2r	2r
2F	2f	2c	2a
=12	=12	=12	=12
1.F	1.f	1.c	1.a
2F	2f	2c	2a
=13	=13	=13	=13
1BB-y	1d	1B-y	2f
.	.	.	1g
1C	1e	2G	.
.	.	[2c	[2a
=14	=14	=14	=14
1D	1f	2c]	2a]
.	.	2Bni	4g
.	.	.	4f
1C	1e	1c	2a
.	.	.	2g
=15	=15	=15	=15
1r	1r	1r	1r
[1F	[1f	[1c	[1a
=16	=16	=16	=16
2F]	2f]	2c]	2a]
2F	2f	2c	2a
[1BB-y	1f	[1d	[1b-y
=17	=17	=17	=17
1BB-]	[0f	1d]	1b-]
[1F	.	[1c	[1a
=18	=18	=18	=18
1F;]	1f;]	1c;]	1a;]
1F	1a	1f	1cc
=19	=19	=19	=19
2F	2f	2c	2a
2F	2f	2c	2a
2E-X	2g	2e-X	2b-y
2E-i	2g	2e-i	2b-y
=20	=20	=20	=20
2F	2.f	2c	2a
2F	.	2c	2cc
.	4e	.	.
2BB-y	2d	2.f	2b-y
2F	2c	.	2a
.	.	4e	.
=21	=21	=21	=21
1G	1B-y	1d	1g
1D	1A	1d	1f
=22	=22	=22	=22
2r	2r	2r	2r
2D	2d	2f	2a
2G	2d	2g	2b-y
2G	2B-y	2d	2g
=23	=23	=23	=23
2F	2c	2f	2a
2D	2d	2f	2b-y
4C	1e	1g	1cc
4D	.	.	.
4E	.	.	.
4F	.	.	.
=24	=24	=24	=24
2G	2d	2g	2b-y
2A	2c	1f	1a
1B-y	[1d	.	.
.	.	4e	2g
.	.	4d	.
=25	=25	=25	=25
0A	2d]	1f	0a
.	4c#i	.	.
.	4Bni	.	.
.	1c#i	1e	.
=26	=26	=26	=26
0D	0d	1f	0a
.	.	1r	.
=27	=27	=27	=27
2r	2r	1f	0r
1B-y	1d	.	.
.	.	2g	.
2c	2e	[2a	.
=28	=28	=28	=28
1d	1f	4a]	0r
.	.	4f	.
.	.	2b-y	.
2c	2e	2a	.
2B-y	2d	[2g	.
=29	=29	=29	=29
1A	1c	2g]	1r
.	.	2f#i	.
[1G	1d	1g	2r
.	.	.	[2b-y
=30	=30	=30	=30
2G]	0r	2d	2b-]
4F	.	2e	2cc
4E	.	.	.
1D	.	2.f	1dd
.	.	4g	.
=31	=31	=31	=31
0r	1r	2a	2cc
.	.	1g	2b-y
.	2r	.	1a
.	2d	2f#i	.
=32	=32	=32	=32
0r	2.e	0g	1g
.	4d	.	.
.	2.c	.	2r
.	.	.	2cc
.	4B-y	.	.
=33	=33	=33	=33
2r	0A	1r	2.cc
2F	.	.	.
.	.	.	4b-y
2.F	.	2r	2.a
.	.	2f	.
4F	.	.	4g
=34	=34	=34	=34
2D	1A	2.f	2f
2C	.	.	2a
.	.	4e	.
2BB-y	2.B-y	2d	2g
2BB-y	.	2d	2f
.	4A	.	.
=35	=35	=35	=35
2C	2A	2c	2e
2D	2F	2B-y	1f
1C	1G	2c	.
.	.	2c	2e
=36	=36	=36	=36
1F	1F	2A	1f
.	.	2A	.
2r	2r	2r	2r
2F	2f	2c	2a
=37	=37	=37	=37
2C	2e	2c	2g
2D	2d	2A	2f
2C	2e	2B-y	2g
2C	2e	2c	2g
=38	=38	=38	=38
2F	2f	2c	2a
2F	2f	2c	2a
2r	2r	2r	2r
2F	2c	2f	2a
=39	=39	=39	=39
0B-y	0d	0f	0b-y
=40	=40	=40	=40
1F	1c	1f	1a
2G	2B-y	2e	2g
2D	2A	2d	2f
=41	=41	=41	=41
1E	1G	1c	1g
[1D	1A	1d	1f
=42	=42	=42	=42
1D]	2r	2r	2r
.	2d	2f	2a
2r	2.d	2.f	2.b-y
2BB-y	.	.	.
.	4c	4e	4a
=43	=43	=43	=43
2BB-y	2.B-y	2d	2g
2BB-y	.	2d	2f
.	4A	.	.
2C	2G	2c	2e
2D	2F	2B-y	[2f
=44	=44	=44	=44
2C	1G	1c	4f]
.	.	.	8eL
.	.	.	8dJ
2C	.	.	2e
2r	1F	2r	[1f
2c	.	2A	.
=45	=45	=45	=45
2.d	1r	2.B-y	1f]
4c	.	4c	.
2B-y	2r	2d	2r
2A	2c	4e	2a
.	.	4f	.
=46	=46	=46	=46
2G	2.d	2.g	2.b-y
2D	.	.	.
.	4c	4f	4a
2E	2.B-y	2e	2g
2F	.	2d	2f
.	4A	.	.
=47	=47	=47	=47
2C	2G	2c	2e
2D	2F	2B-y	2.f
1C	1G	[1c	.
.	.	.	8eL
.	.	.	8dJ
.	.	.	2e
=48	=48	=48	=48
1F	1F	1c]	[0fl
2r	2r	2r	.
2F	2c	2A	.
=49	=49	=49	=49
2.BB-y	2.d	2.B-y	0f_
4BB-y	4c	4c	.
2BB-y	2B-y	2d	.
2F	2A	2c	.
=50	=50	=50	=50
0BB-y	0d	2B-y	0f_
.	.	2F	.
.	.	1B-y	.
=51	=51	=51	=51
00Fl	00cl	00Al	00f]
==	==	==	==
*-	*-	*-	*-
!!!system-decoration: [*]
!!!RDF**kern: i = editorial accidental
!!!RDF**kern: l = terminal long
!!!ENC: Benjamin Ory
!!!END: 2021/2/8
!!!EED: Benjamin Ory
!!!EEV: 2021/04/29
!!!YEC: Copyright 2021 Benjamin Ory, All Rights Reserved
!!!ONB: Translated from MusicXML on 2021/04/29
